X: 14
T: Reel With The Birl, The
Z: Jeremy
S: https://thesession.org/tunes/189#setting50514
R: reel
M: 4/4
L: 1/8
K: Edor
|:E2BE DEBE|dedB ADFD|E2BE DEBE|dedB A2FD:|
BABd e3g|fddc d2ef|g3f g2ge|faa2 afed|
fbb2 bafe|faa2 afed|B3A BAFA|dcdB AGFD||

